X: 0864
T: JACK IN THE WEST
B: Oliver Ditson "The Boston Collection of Instrumental Music" 1910 p.86 #4
F: http://conquest.imslp.info/files/imglnks/usimg/8/8f/IMSLP175643-PMLP309456-bostoncollection00bost_bw.pdf
%: 2012 John Chambers <jc:trillian.mit.edu>
M: 9/8
L: 1/8
K: Edor
|:\
E2e E2F G3 | D2d D2B AFD |\
E2e E2F G3 | D2e d2A BGE :|
e2b bag Tf3 | d>ef/g/ a2g fed |\
e2b bag Tf3 | B2e d2c BGE |
e2b bag f3 | d>ef/g/ a2g fed |\
bag agf Te3 | B2e d2A BGE |]

%%sep 1 1 500
%%sep 1 1 500
